src/cmd/km/sc_underline.svg

<?xml version="1.0" encoding="UTF-8" standalone="no"?>
<svg
   xmlns:dc="http://purl.org/dc/elements/1.1/"
   xmlns:cc="http://creativecommons.org/ns#"
   xmlns:rdf="http://www.w3.org/1999/02/22-rdf-syntax-ns#"
   xmlns:svg="http://www.w3.org/2000/svg"
   xmlns="http://www.w3.org/2000/svg"
   xmlns:sodipodi="http://sodipodi.sourceforge.net/DTD/sodipodi-0.dtd"
   xmlns:inkscape="http://www.inkscape.org/namespaces/inkscape"
   viewBox="0 0 16 16"
   version="1.1"
   id="svg4"
   sodipodi:docname="sc_underline.svg"
   inkscape:export-filename="/home/jupiter007/Libreoffice yaru theme fullcolor/build/cmd/km/sc_underline.png"
   inkscape:export-xdpi="96"
   inkscape:export-ydpi="96"
   inkscape:version="1.0.1 (3bc2e813f5, 2020-09-07)">
  <metadata
     id="metadata10">
    <rdf:RDF>
      <cc:Work
         rdf:about="">
        <dc:format>image/svg+xml</dc:format>
        <dc:type
           rdf:resource="http://purl.org/dc/dcmitype/StillImage" />
      </cc:Work>
    </rdf:RDF>
  </metadata>
  <defs
     id="defs8" />
  <sodipodi:namedview
     pagecolor="#ffffff"
     bordercolor="#666666"
     borderopacity="1"
     objecttolerance="10"
     gridtolerance="10"
     guidetolerance="10"
     inkscape:pageopacity="0"
     inkscape:pageshadow="2"
     inkscape:window-width="1920"
     inkscape:window-height="1011"
     id="namedview6"
     showgrid="true"
     inkscape:zoom="29.5"
     inkscape:cx="-0.5598421"
     inkscape:cy="6.9810108"
     inkscape:window-x="0"
     inkscape:window-y="0"
     inkscape:window-maximized="1"
     inkscape:current-layer="svg4"
     inkscape:document-rotation="0">
    <inkscape:grid
       type="xygrid"
       id="grid819" />
  </sodipodi:namedview>
  <path
     style="opacity:0.7;fill:#000000;fill-opacity:1;stroke:#000000;stroke-width:2;stroke-linejoin:round;stroke-miterlimit:4;stroke-dasharray:none"
     d="m 3.5,2 -2,2 2.5,2 2e-7,4 c 1e-7,1.65685 1.567,3 3.5,3 h 1 C 10.433,13 12,11.65685 12,10 V 5.5 L 10,4 h 2 V 2 H 9.5 L 7.5,4 10,6 V 7.3125 9 c 0,1.10457 -0.8954298,2 -1.9999998,2 -1.10457,0 -2,-0.89543 -2,-2 V 7.3125 5.5 L 4,4 H 6 V 2 Z"
     id="path848"
     inkscape:connector-curvature="0"
     sodipodi:nodetypes="cccsccsccccccccssscccccc" />
  <path
     style="opacity:0.7;fill:#000000;stroke:#000000;stroke-width:2;stroke-linejoin:round;stroke-miterlimit:4;stroke-dasharray:none"
     d="m 2,14 v 1 h 12 v -1 z"
     id="path834" />
  <path
     style="fill:#ffffff"
     d="m 2,14 v 1 h 12 v -1 z"
     id="path838" />
  <path
     style="fill:#ffffff;fill-opacity:1"
     d="m 3.5,2 -2,2 2.5,2 2e-7,4 c 1e-7,1.65685 1.567,3 3.5,3 h 1 C 10.433,13 12,11.65685 12,10 V 5.5 L 10,4 h 2 V 2 H 9.5 L 7.5,4 10,6 V 7.3125 9 c 0,1.10457 -0.8954298,2 -1.9999998,2 -1.10457,0 -2,-0.89543 -2,-2 V 7.3125 5.5 L 4,4 H 6 V 2 Z"
     id="path820"
     inkscape:connector-curvature="0"
     sodipodi:nodetypes="cccsccsccccccccssscccccc" />
</svg>

<?xml version="1.0" encoding="UTF-8" standalone="no"?>
<svg
   xmlns:dc="http://purl.org/dc/elements/1.1/"
   xmlns:cc="http://creativecommons.org/ns#"
   xmlns:rdf="http://www.w3.org/1999/02/22-rdf-syntax-ns#"
   xmlns:svg="http://www.w3.org/2000/svg"
   xmlns="http://www.w3.org/2000/svg"
   xmlns:xlink="http://www.w3.org/1999/xlink"
   xmlns:sodipodi="http://sodipodi.sourceforge.net/DTD/sodipodi-0.dtd"
   xmlns:inkscape="http://www.inkscape.org/namespaces/inkscape"
   viewBox="0 0 16 16"
   version="1.1"
   id="svg4"
   sodipodi:docname="sc_underline.svg"
   inkscape:export-filename="/home/jupiter007/Libreoffice yaru theme fullcolor/build/cmd/km/sc_underline.png"
   inkscape:export-xdpi="96"
   inkscape:export-ydpi="96"
   inkscape:version="1.0.1 (3bc2e813f5, 2020-09-07)">
  <metadata
     id="metadata10">
    <rdf:RDF>
      <cc:Work
         rdf:about="">
        <dc:format>image/svg+xml</dc:format>
        <dc:type
           rdf:resource="http://purl.org/dc/dcmitype/StillImage" />
        <dc:title></dc:title>
      </cc:Work>
    </rdf:RDF>
  </metadata>
  <defs
     id="defs8">
    <linearGradient
       inkscape:collect="always"
       id="linearGradient856">
      <stop
         style="stop-color:#151515;stop-opacity:1"
         offset="0"
         id="stop852" />
      <stop
         style="stop-color:#4d4d4d;stop-opacity:1"
         offset="1"
         id="stop854" />
    </linearGradient>
    <linearGradient
       inkscape:collect="always"
       id="linearGradient839">
      <stop
         style="stop-color:#000000;stop-opacity:1;"
         offset="0"
         id="stop835" />
      <stop
         style="stop-color:#000000;stop-opacity:0;"
         offset="1"
         id="stop837" />
    </linearGradient>
    <linearGradient
       inkscape:collect="always"
       xlink:href="#linearGradient839"
       id="linearGradient841"
       x1="0.5000497"
       y1="8.5"
       x2="15"
       y2="8.5"
       gradientUnits="userSpaceOnUse" />
    <linearGradient
       inkscape:collect="always"
       xlink:href="#linearGradient856"
       id="linearGradient858"
       x1="8"
       y1="2"
       x2="8"
       y2="15"
       gradientUnits="userSpaceOnUse" />
  </defs>
  <sodipodi:namedview
     pagecolor="#808080"
     bordercolor="#666666"
     borderopacity="1"
     objecttolerance="10"
     gridtolerance="10"
     guidetolerance="10"
     inkscape:pageopacity="0"
     inkscape:pageshadow="2"
     inkscape:window-width="1920"
     inkscape:window-height="1016"
     id="namedview6"
     showgrid="true"
     inkscape:zoom="41.7193"
     inkscape:cx="10.015988"
     inkscape:cy="7.6009475"
     inkscape:window-x="0"
     inkscape:window-y="27"
     inkscape:window-maximized="1"
     inkscape:current-layer="svg4"
     inkscape:document-rotation="0">
    <inkscape:grid
       type="xygrid"
       id="grid819" />
  </sodipodi:namedview>
  <path
     id="path848"
     style="opacity:1;fill:url(#linearGradient841);fill-opacity:1;stroke:#ffffff;stroke-width:2;stroke-linejoin:round;stroke-miterlimit:4;stroke-dasharray:none"
     d="M 3.5 2 L 1.5 4 L 4 6 L 4 10 C 4.0000001 11.65685 5.567 13 7.5 13 L 8.5 13 C 10.433 13 12 11.65685 12 10 L 12 5.5 L 10 4 L 12 4 L 12 2 L 9.5 2 L 7.5 4 L 10 6 L 10 7.3125 L 10 9 C 10 10.10457 9.10457 11 8 11 C 6.89543 11 6 10.10457 6 9 L 6 7.3125 L 6 5.5 L 4 4 L 6 4 L 6 2 L 3.5 2 z M 2 14 L 2 15 L 14 15 L 14 14 L 2 14 z " />
  <path
     id="path838"
     style="fill:url(#linearGradient858);fill-opacity:1"
     d="M 3.5 2 L 1.5 4 L 4 6 L 4 10 C 4.0000001 11.65685 5.567 13 7.5 13 L 8.5 13 C 10.433 13 12 11.65685 12 10 L 12 5.5 L 10 4 L 12 4 L 12 2 L 9.5 2 L 7.5 4 L 10 6 L 10 7.3125 L 10 9 C 10 10.10457 9.10457 11 8 11 C 6.89543 11 6 10.10457 6 9 L 6 7.3125 L 6 5.5 L 4 4 L 6 4 L 6 2 L 3.5 2 z M 2 14 L 2 15 L 14 15 L 14 14 L 2 14 z " />
</svg>
